docs/images/tabs/sign.svg

<svg width="29" height="86" viewBox="0 0 29 86" fill="none" xmlns="http://www.w3.org/2000/svg">
<path d="M14.4388 58.6951H6.74951L0 0H14.4388H28.8776L22.2136 58.6951H14.4388Z" fill="#323E48"/>
<path d="M14.5244 64.3369C17.5146 64.3369 19.9923 65.2767 22.0428 67.2418C24.0078 69.2068 25.0331 71.7699 25.0331 74.8456C25.0331 77.9214 24.0078 80.5699 22.0428 82.5349C20.0777 84.5 17.6001 85.4398 14.5244 85.4398C11.4486 85.4398 9.0564 84.4146 7.00591 82.4495C4.95543 80.399 4.01562 77.9214 4.01562 74.9311C4.01562 71.9408 5.04087 69.2068 7.00591 67.3272C9.0564 65.3622 11.5341 64.4223 14.5244 64.4223V64.3369Z" fill="#323E48"/>
</svg>

<svg xmlns="http://www.w3.org/2000/svg" width="29" height="86" fill="none"><path fill="#323E48" d="M14.439 58.695h-7.69L0 0h28.878l-6.664 58.695zm.085 5.642c2.99 0 5.468.94 7.519 2.905 1.965 1.965 2.99 4.528 2.99 7.604 0 3.075-1.025 5.724-2.99 7.689S17.6 85.44 14.524 85.44c-3.075 0-5.468-1.025-7.518-2.99-2.05-2.051-2.99-4.529-2.99-7.519s1.025-5.724 2.99-7.604c2.05-1.965 4.528-2.905 7.518-2.905z"/></svg>
